X:242
T:La valse des voyages
C:Jean-Claude Bélanger
Z:robin.beech@mcgill.ca
M:3/4
L:1/8
K:G
G2 |: d2 Bd Bd | e2 ^ce ce | d2 (3BdB (3FBF | E2 (3EEE EE | A2 GA GA |
B2 FB FB |1 G2 EG EG | D2 (3AAA AA :|2 G2 EG ED | G2 zG Bd |:
g2- ge ge | g2- ge ge | (3ddd de de | B2- Bd Bd | (3^ccc cA cA | (3FFF FD FD | G2 GF GB | d2- dd ef |
g2- ge ge | g2- ge ge | (3ddd de de | B2- Bd Bd | (3^ccc ce ce | (3fff fd fd | g2 eg ed | g4 G2 ||
"variante" g2 (3ded (3 BdB | GD (3GDG (3BGB ||
